public/section1/Awan2.svg

<svg width="661" height="362" viewBox="0 0 661 362" fill="none" xmlns="http://www.w3.org/2000/svg">
<path d="M537.572 228.765C554.02 248.444 579.925 261.663 602.333 261.961L603.397 261.965C618.854 261.876 631.634 255.901 641.459 244.2L641.925 243.638C648.759 235.275 651.655 225.899 650.335 216.48L650.336 216.479C649.81 212.689 648.563 209.013 646.721 205.544C646.184 211.58 643.11 216.955 638.704 221.291C633.875 226.043 627.422 229.574 620.862 231.4C599.88 237.243 576.499 229.356 562.66 211.775C558.638 206.67 555.067 199.399 552.917 191.666C550.836 184.177 550.073 176.205 551.564 169.308L551.715 168.643C553.261 162.209 556.723 157.15 561.809 153.824C554.597 149.628 548.906 143.514 543.825 137.369C513.214 100.328 493.528 54.1969 476.175 13.5639C456.888 -31.6161 426.495 -70.5434 390.614 -96.0134L390.613 -96.0137C386.639 -98.8397 382.54 -101.486 378.332 -103.96C386.108 -97.9173 393.474 -91.1431 400.36 -83.648L401.2 -82.7285C448.404 -30.7069 469.888 41.8685 487.118 100.066L487.113 100.069C489.139 106.904 491.064 113.962 492.924 120.946L494.767 127.9C504.252 163.709 514.025 200.58 537.572 228.765Z" fill="url(#paint0_linear_24_5398)" stroke="#FCF0D6"/>
<path d="M524.993 303.113C539.481 308.805 554.763 309.63 571.074 310.531C581.742 311.112 592.789 311.72 603.518 313.837C611.815 315.477 617.388 320.404 622.635 325.044C626.118 328.123 629.35 330.988 633.189 332.787L633.563 332.957C641.41 336.465 649.969 338.817 659.019 339.947C678.868 342.429 696.923 338.445 709.87 328.809C724.097 318.223 728.1 302.844 732.379 286.357C734.875 276.739 737.48 266.724 742.284 257.378L742.285 257.377C744.789 252.518 748.213 248.626 751.618 244.981L753.074 243.431C757.129 239.132 760.898 235.147 763.027 230.114C766.58 221.711 767.563 211.118 765.741 200.887L765.555 199.898C762.432 184.001 751.484 169.469 737.009 161.985C729.358 158.045 720.753 157.045 711.532 155.981L711.533 155.981C704.345 155.162 696.854 154.287 689.701 151.883L689.7 151.883C679.511 148.437 674.167 141.284 669.353 134.238L668.395 132.831C665.219 128.161 662.249 123.806 658.058 120.43L657.648 120.106C649.063 113.453 634.372 110.287 618.289 111.725C613.16 112.182 610.178 113.806 608.052 116.422C605.89 119.083 604.578 122.805 602.901 127.595L602.9 127.597L602.292 129.323C601.778 130.777 601.238 132.268 600.627 133.786L600.251 134.699C597.292 141.771 593.448 146.351 588.972 149.752C584.511 153.142 579.434 155.35 574.058 157.69L574.057 157.69C572.297 158.454 570.469 159.244 568.598 160.124L568.594 160.126L568.189 160.319C564.054 162.36 561.472 165.752 560.273 170.707C558.978 176.12 559.637 182.911 561.47 189.432C563.244 195.744 566.1 201.74 569.267 205.907L569.574 206.304C581.225 221.121 600.885 227.775 618.453 222.884L618.453 222.883C622.776 221.677 627.894 219.074 631.804 215.506C635.719 211.934 638.357 207.464 637.91 202.511L637.909 202.51C637.542 198.412 635.223 194.522 631.877 191.68C628.531 188.84 624.199 187.083 619.863 187.206L619.863 187.206C617.409 187.268 615.391 185.367 615.306 182.924L615.307 182.92C615.24 180.482 617.146 178.449 619.589 178.364L619.591 178.363C625.118 178.192 630.528 180.006 635.04 183.054C636.214 182.771 637.511 182.959 638.585 183.706L638.586 183.707C650.048 191.72 657.338 202.908 659.054 215.234C660.699 227.017 657.007 239.086 648.724 249.207C637.26 263.227 621.58 270.677 603.394 270.788L603.393 270.789C578.202 270.92 549.016 256.296 530.742 234.414C505.915 204.708 495.863 166.729 486.174 130.14L486.174 130.139C483.755 120.999 481.254 111.551 478.579 102.538C461.565 45.0713 440.412 -26.3081 394.59 -76.8199C368.749 -105.305 335.93 -123.124 299.441 -128.654C294.862 -128.992 290.253 -129.166 285.648 -129.166L285.649 -129.166C257.399 -129.107 229.692 -119.743 203.272 -101.284L203.314 -101.272L202.461 -100.668C200.707 -99.4293 198.95 -98.1659 197.187 -96.888L191.873 -93.0234C177.244 -82.3603 162.067 -71.2707 144.885 -64.3433L144.884 -64.3436C119.6 -54.1612 92.3015 -59.0647 68.8177 -77.1177C78.321 -63.4034 92.5186 -50.795 109.538 -46.3198L109.539 -46.3195C124.715 -42.2905 143.516 -42.841 161.1 -47.8522C175.532 -51.9643 187.125 -60.2076 199.495 -69.0234L199.496 -69.0243C206.767 -74.2041 214.308 -79.5781 222.532 -84.0487L222.532 -84.0497C237.73 -92.3348 252.704 -96.9657 267.046 -97.7773C281.147 -98.5934 294.533 -97.182 307.179 -93.5812C335.39 -85.548 359.8 -66.5904 380.102 -36.9429C409.993 6.70559 421.522 60.0607 425.725 87.9627C426.124 90.6046 426.516 93.2446 426.906 95.8837L428.072 103.8C429.338 112.368 430.604 120.933 431.942 129.484C435.811 154.199 440.92 183.155 449.358 210.666L449.358 210.667C449.663 211.674 450.22 212.749 450.842 213.94L450.843 213.942C451.509 215.234 452.301 216.753 452.848 218.456C458.875 236.842 469.419 249.942 481.704 265.203L482.14 265.742C494.94 281.635 507.768 296.354 524.993 303.113Z" fill="url(#paint1_linear_24_5398)" stroke="#FCF0D6"/>
<path d="M293.63 204.531C307.656 211.334 323.6 210.568 337.878 205.133C351.935 199.782 364.326 189.921 371.614 178.392L371.957 177.842C377.226 169.266 385.322 164.317 393.026 159.598C399.037 155.914 404.649 152.479 409.001 147.516C414.277 141.498 417.567 135.95 419.146 129.97C420.725 123.992 420.605 117.537 418.986 109.685C418.744 108.528 418.986 107.388 419.569 106.457C419.502 105.996 419.435 105.54 419.355 105.082L419.847 104.996L419.354 105.082L419.352 105.069C418.57 99.7896 417.799 94.5335 416.996 89.2679L416.996 89.2669C412.888 62.0792 401.689 10.2187 372.81 -31.9691C345.228 -72.2439 309.813 -91.3876 267.561 -88.962C254.553 -88.212 240.835 -83.9581 226.763 -76.2852C219.977 -72.5892 213.542 -68.1432 207.295 -63.7165L204.628 -61.8226C192.282 -53.0371 179.446 -43.8937 163.521 -39.3531L161.938 -38.9143C146.445 -34.7409 130.101 -33.7668 115.688 -36.0399C128.568 -28.1537 142.756 -23.454 157.514 -22.1093C157.832 -22.1718 158.149 -22.2068 158.49 -22.2L158.502 -22.1998C173.825 -21.5558 184.536 -23.1524 194.478 -26.7996C204.437 -30.4535 213.647 -36.1715 225.983 -43.8282C231.046 -46.9768 236.695 -50.4928 243.095 -54.2797L245.885 -55.9193C267.353 -68.4801 287.598 -72.074 307.739 -66.8275L307.749 -66.8246C308.017 -66.7482 308.291 -66.6739 308.569 -66.5991C308.846 -66.5246 309.127 -66.4493 309.404 -66.3706C327.59 -61.1919 343.556 -49.2897 354.512 -32.7269C375.5 -0.986461 379.175 44.2987 363.916 82.6299L363.916 82.6308L363.811 82.8729C363.748 83.0058 363.678 83.1307 363.604 83.2527C368.414 91.4002 370.65 101.234 369.448 110.207L369.319 111.082C367.795 120.511 362.744 127.924 354.683 132.481C348.364 136.053 340.142 137.178 331.985 136.144C323.826 135.11 315.679 131.91 309.498 126.772C300.569 119.351 297.501 109.039 301.108 98.4803L301.108 98.4793C301.902 96.1703 304.349 94.9336 306.728 95.7276L306.728 95.7267L306.733 95.729C309.046 96.5245 310.26 99.0379 309.485 101.349L309.483 101.353L309.345 101.772C307.966 106.078 308.338 109.692 309.556 112.666C310.818 115.748 313.003 118.174 315.162 119.971C319.857 123.875 326.33 126.4 332.813 127.281C339.3 128.162 345.723 127.387 350.334 124.781L350.335 124.782C357.459 120.763 359.843 114.368 360.602 109.674C362.073 100.563 358.68 89.5864 352.159 82.4063C348.092 77.9289 343.157 76.5792 337.273 74.9904L337.272 74.9902C332.376 73.6651 327.248 72.2794 322.327 68.8539L322.325 68.8534C318.112 65.9057 314.93 62.7263 311.886 59.6791C306.684 54.475 302.325 50.0917 293.908 48.3912C289.043 47.4154 283.246 47.4938 277.817 48.8366C272.556 50.1379 267.68 52.6161 264.323 56.4243L264.002 56.7971C262.222 58.922 261.399 61.443 261.068 64.2481C260.736 67.064 260.904 70.128 261.077 73.3303C261.457 80.2603 261.931 88.4224 255.991 94.2609L255.703 94.5373C250.979 98.9686 247.226 104.34 244.914 109.582C242.597 114.837 241.753 119.898 242.75 123.735L242.751 123.734C245.122 132.791 247.711 138.405 250.434 142.337C253.155 146.265 256.025 148.543 259.034 150.923L260.086 151.755L260.025 151.758C263.821 154.79 267.725 158.206 271.228 164.745L271.597 165.447C274.233 170.551 274.802 175.472 275.34 180.139C275.865 184.638 276.345 188.709 278.715 192.668C281.007 196.497 285.102 200.274 292.867 204.155L293.63 204.531Z" fill="url(#paint2_linear_24_5398)" stroke="#FCF0D6"/>
<path d="M357.258 75.0563C369.167 41.2327 365.61 1.19207 347.999 -26.5181L347.143 -27.8381C337.053 -43.0987 322.276 -53.8882 305.513 -58.2664C289.209 -62.5139 272.614 -60.0951 254.926 -50.8233C267.722 -54.8452 281.188 -56.4496 295.864 -52.2707C296.846 -51.9911 297.842 -51.6907 298.847 -51.3521L298.846 -51.3514C318.751 -44.6892 333.985 -29.9532 341.748 -9.89322C350.916 13.7791 348.771 42.6045 336.193 65.492C337.3 65.8173 338.413 66.1346 339.553 66.4446L339.554 66.4449C345.233 67.9953 351.704 69.779 357.258 75.0563Z" fill="url(#paint3_linear_24_5398)" stroke="#FCF0D6"/>
<defs>
<linearGradient id="paint0_linear_24_5398" x1="331.329" y1="33.9914" x2="677.585" y2="132.588" gradientUnits="userSpaceOnUse">
<stop stop-color="#FCF0D6"/>
<stop offset="1" stop-color="#FFC446"/>
</linearGradient>
<linearGradient id="paint1_linear_24_5398" x1="48.7665" y1="-16.7387" x2="775.253" y2="190.128" gradientUnits="userSpaceOnUse">
<stop stop-color="#FCF0D6"/>
<stop offset="1" stop-color="#FFC446"/>
</linearGradient>
<linearGradient id="paint2_linear_24_5398" x1="101.662" y1="3.8737" x2="429.034" y2="97.0928" gradientUnits="userSpaceOnUse">
<stop stop-color="#FCF0D6"/>
<stop offset="1" stop-color="#FFC446"/>
</linearGradient>
<linearGradient id="paint3_linear_24_5398" x1="240.916" y1="-17.2118" x2="373.53" y2="20.5501" gradientUnits="userSpaceOnUse">
<stop stop-color="#FCF0D6"/>
<stop offset="1" stop-color="#FFC446"/>
</linearGradient>
</defs>
</svg>

<svg xmlns="http://www.w3.org/2000/svg" width="661" height="362" fill="none" viewBox="0 0 661 362"><path fill="url(#a)" stroke="#fcf0d6" d="M537.57 228.76c16.45 19.68 42.35 32.9 64.76 33.2h1.07c15.45-.08 28.23-6.06 38.06-17.76l.46-.56c6.84-8.36 9.73-17.74 8.42-27.16-.53-3.79-1.78-7.47-3.62-10.94-.54 6.04-3.61 11.42-8.02 15.75-4.82 4.75-11.28 8.28-17.84 10.11-20.98 5.84-44.36-2.04-58.2-19.62-4.02-5.11-7.59-12.38-9.74-20.11-2.08-7.49-2.85-15.46-1.36-22.36l.16-.67c1.54-6.43 5-11.49 10.09-14.82-7.21-4.19-12.9-10.31-17.98-16.45-30.62-37.04-50.3-83.17-67.65-123.81-19.29-45.18-49.68-84.1-85.57-109.57-3.97-2.83-8.07-5.48-12.28-7.95 7.78 6.04 15.14 12.82 22.03 20.31l.84.92c47.2 52.02 68.69 124.6 85.92 182.8h-.01c2.03 6.83 3.95 13.89 5.81 20.88l1.85 6.95c9.48 35.81 19.25 72.68 42.8 100.86Z"/><path fill="url(#b)" stroke="#fcf0d6" d="M524.99 303.11c14.49 5.7 29.77 6.52 46.08 7.42 10.67.58 21.72 1.19 32.45 3.31 8.3 1.64 13.87 6.56 19.11 11.2 3.49 3.08 6.72 5.95 10.56 7.75l.37.17c7.85 3.5 16.41 5.86 25.46 6.99 19.85 2.48 37.9-1.51 50.85-11.14 14.23-10.59 18.23-25.97 22.51-42.45 2.5-9.62 5.1-19.64 9.9-28.98 2.51-4.86 5.93-8.75 9.34-12.4l1.45-1.55c4.06-4.3 7.83-8.28 9.96-13.32 3.55-8.4 4.53-18.99 2.71-29.22l-.19-.99c-3.12-15.9-14.07-30.43-28.54-37.91-7.65-3.95-16.26-4.95-25.48-6.01-7.18-.82-14.68-1.69-21.83-4.1-10.19-3.44-15.53-10.6-20.35-17.64l-.96-1.41c-3.17-4.67-6.14-9.02-10.33-12.4l-.41-.32c-8.59-6.66-23.28-9.82-39.36-8.39-5.13.46-8.11 2.09-10.24 4.7-2.16 2.66-3.47 6.39-5.15 11.17v.01l-.61 1.72c-.51 1.46-1.05 2.95-1.66 4.47l-.38.91c-2.96 7.07-6.8 11.65-11.28 15.05-4.46 3.39-9.54 5.6-14.91 7.94-1.76.76-3.59 1.55-5.46 2.43l-.01.01-.4.19c-4.14 2.04-6.72 5.43-7.92 10.39-1.29 5.41-.63 12.2 1.2 18.72 1.77 6.31 4.63 12.31 7.8 16.48l.3.39c11.66 14.82 31.31 21.48 48.88 16.58 4.33-1.2 9.44-3.81 13.35-7.37 3.92-3.58 6.56-8.05 6.11-13-.37-4.1-2.69-7.99-6.03-10.83-3.35-2.84-7.68-4.6-12.02-4.47a4.423 4.423 0 0 1-4.55-4.29 4.436 4.436 0 0 1 4.28-4.56c5.53-.17 10.94 1.65 15.45 4.69 1.17-.28 2.47-.09 3.55.66 11.46 8.01 18.75 19.2 20.46 31.52 1.65 11.79-2.04 23.86-10.33 33.98-11.46 14.02-27.14 21.47-45.33 21.58-25.19.13-54.37-14.49-72.65-36.38-24.82-29.7-34.88-67.68-44.57-104.27-2.42-9.14-4.92-18.59-7.59-27.6-17.02-57.47-38.17-128.85-83.99-179.36-25.84-28.49-58.66-46.3-95.15-51.83-4.58-.34-9.19-.52-13.79-.52-28.25.06-55.96 9.43-82.38 27.89l.04.01-.85.6a526 526 0 0 0-5.27 3.78l-5.32 3.87c-14.63 10.66-29.8 21.75-46.99 28.68-25.28 10.18-52.58 5.28-76.06-12.78 9.5 13.72 23.7 26.32 40.72 30.8 15.18 4.03 33.98 3.48 51.56-1.53 14.43-4.11 26.03-12.36 38.4-21.17 7.27-5.18 14.81-10.56 23.03-15.03 15.2-8.28 30.17-12.92 44.52-13.73 14.1-.81 27.48.6 40.13 4.2 28.21 8.03 52.62 26.99 72.92 56.64 29.89 43.65 41.42 97 45.63 124.9.39 2.64.79 5.28 1.18 7.92l1.16 7.92c1.27 8.57 2.53 17.13 3.87 25.68 3.87 24.72 8.98 53.68 17.42 81.19.3 1 .86 2.08 1.48 3.27.67 1.29 1.46 2.81 2.01 4.52 6.03 18.38 16.57 31.48 28.85 46.74l.44.54c12.8 15.89 25.63 30.61 42.85 37.37Z"/><path fill="url(#c)" stroke="#fcf0d6" d="M293.63 204.53c14.03 6.8 29.97 6.04 44.25.6 14.06-5.35 26.45-15.21 33.73-26.74l.35-.55c5.27-8.57 13.36-13.52 21.07-18.24 6.01-3.69 11.62-7.12 15.97-12.08 5.28-6.02 8.57-11.57 10.15-17.55s1.46-12.43-.16-20.28c-.25-1.16 0-2.3.58-3.23-.07-.46-.13-.92-.21-1.38l.49-.08-.5.08v-.01c-.78-5.28-1.55-10.54-2.35-15.8-4.11-27.19-15.31-79.05-44.19-121.24-27.58-40.27-63-59.42-105.25-56.99-13.01.75-26.72 5-40.8 12.67-6.78 3.7-13.22 8.15-19.47 12.57l-2.66 1.9c-12.35 8.78-25.18 17.93-41.11 22.47l-1.58.44c-15.5 4.17-31.84 5.14-46.25 2.87 12.88 7.89 27.07 12.59 41.82 13.93.32-.06.64-.1.98-.09h.01c15.32.64 26.04-.95 35.98-4.6 9.96-3.65 19.17-9.37 31.5-17.03 5.07-3.15 10.71-6.66 17.11-10.45l2.79-1.64c21.47-12.56 41.72-16.15 61.86-10.91l.01.01c.27.07.54.15.82.22.28.08.56.15.83.23 18.19 5.18 34.16 17.08 45.11 33.64C375.5-.99 379.18 44.3 363.92 82.63l-.11.24c-.06.14-.13.26-.21.38 4.81 8.15 7.05 17.98 5.85 26.96l-.13.87c-1.52 9.43-6.58 16.84-14.64 21.4-6.32 3.57-14.54 4.7-22.69 3.66-8.16-1.03-16.31-4.23-22.49-9.37-8.93-7.42-12-17.73-8.39-28.29.79-2.31 3.24-3.55 5.62-2.75 2.32.79 3.53 3.31 2.76 5.62h-.01l-.13.42c-1.38 4.31-1.01 7.92.21 10.9 1.26 3.08 3.44 5.5 5.6 7.3 4.7 3.91 11.17 6.43 17.65 7.31 6.49.88 12.91.11 17.52-2.5 7.13-4.02 9.51-10.41 10.27-15.11 1.47-9.11-1.92-20.08-8.44-27.26-4.07-4.48-9-5.83-14.89-7.42-4.89-1.32-10.02-2.71-14.94-6.14h-.01c-4.21-2.94-7.39-6.12-10.43-9.17-5.21-5.2-9.57-9.59-17.98-11.29-4.87-.97-10.66-.9-16.09.45-5.26 1.3-10.14 3.78-13.5 7.58l-.32.38c-1.78 2.12-2.6 4.64-2.93 7.45s-.17 5.88.01 9.08c.38 6.93.85 15.09-5.09 20.93l-.29.28c-4.72 4.43-8.47 9.8-10.79 15.04-2.31 5.26-3.16 10.32-2.16 14.15 2.37 9.06 4.96 14.68 7.68 18.61 2.73 3.92 5.59 6.2 8.6 8.58l1.06.83-.07.01c3.8 3.03 7.71 6.45 11.21 12.99l.37.7c2.63 5.1 3.2 10.02 3.74 14.69.53 4.5 1.01 8.57 3.37 12.53 2.3 3.83 6.39 7.6 14.16 11.49z"/><path fill="url(#d)" stroke="#fcf0d6" d="M357.26 75.06c11.91-33.83 8.35-73.87-9.26-101.58l-.86-1.32c-10.09-15.26-24.86-26.05-41.63-30.43-16.3-4.24-32.9-1.83-50.58 7.45 12.79-4.03 26.26-5.63 40.93-1.45.99.28 1.98.58 2.99.92 19.9 6.66 35.14 21.4 42.9 41.46 9.17 23.67 7.02 52.49-5.56 75.38 1.11.33 2.22.64 3.36.95 5.68 1.56 12.15 3.34 17.71 8.62Z"/><defs><linearGradient id="a" x1="331.33" x2="677.59" y1="33.99" y2="132.59" gradientUnits="userSpaceOnUse"><stop stop-color="#fcf0d6"/><stop offset="1" stop-color="#ffc446"/></linearGradient><linearGradient id="b" x1="48.77" x2="775.25" y1="-16.74" y2="190.13" gradientUnits="userSpaceOnUse"><stop stop-color="#fcf0d6"/><stop offset="1" stop-color="#ffc446"/></linearGradient><linearGradient id="c" x1="101.66" x2="429.03" y1="3.87" y2="97.09" gradientUnits="userSpaceOnUse"><stop stop-color="#fcf0d6"/><stop offset="1" stop-color="#ffc446"/></linearGradient><linearGradient id="d" x1="240.92" x2="373.53" y1="-17.21" y2="20.55" gradientUnits="userSpaceOnUse"><stop stop-color="#fcf0d6"/><stop offset="1" stop-color="#ffc446"/></linearGradient></defs></svg>
